X: 5777
T: Caisleán An Óir
R: hornpipe
M: 4/4
K: Ddorian
A,DCE D2DG|ABBA d2de|dcAG EAGE|EDCA, C2A,G,|
A,DCE D2DG|ABBA dcde|dcAG EAGE|1 EDDC D2DC:|2 EDDC D3G||
Adde =f2ed|dcAB c2cA|dcAG EAGE|EDCA, C2A,G,|
A,DCE D2DG|ABBA d2de|dcAG EAGE|EDDC D3G|
Adde =f2ed|dcAB c2cA|dcAG EAGE|EDCA, C2A,G,|
A,DCE D2DG|ABBA dcde|dcAG EAGE|EDDC D2DC||

